src/assets/logo-02.svg

<svg fill="none" height="1024" viewBox="0 0 1024 1024" width="1024" xmlns="http://www.w3.org/2000/svg"><path d="m0 0h1024v1024h-1024z" fill="#16d2aa"/><g fill="#fff"><path d="m474.133 100.837c-80.65 7.914-156.813 38.862-220.224 89.182-16.649 13.348-50.303 47.012-63.646 63.667-51.602 64.967-82.421 142.455-89.388 224.786-1.7713 20.907-.709 66.148 1.889 85.284 10.982 80.677 42.156 152.258 92.813 212.618 13.107 15.71 38.495 41.107 53.019 53.155 58.451 48.312 127.647 79.141 204.872 90.954 20.901 3.307 73.093 4.606 96.001 2.48 96.71-9.095 185.508-50.792 254.113-119.421 68.606-68.628 110.289-157.456 119.381-254.197 2.126-22.916.827-75.126-2.479-96.033-11.808-77.252-42.628-146.471-90.924-204.941-19.483-23.506-52.9-54.69-77.343-71.936-56.208-40.043-117.965-64.258-188.342-74.062-16.177-2.245-72.974-3.1896-89.742-1.536zm78.407 58.352c154.451 18.073 278.674 133.241 308.194 285.854 11.336 58.707 7.321 121.311-11.69 178.364-23.616 70.873-66.48 129.934-126.584 174.584-78.643 58.233-180.902 81.385-277.257 62.722-125.522-24.333-228.253-113.987-269.464-234.944-8.148-23.86-14.17-52.328-16.886-79.023-2.125-20.671-.944-68.983 2.244-88.709 9.801-61.542 33.181-115.169 72.148-165.961 11.1-14.411 44.635-47.957 59.041-59.061 51.012-39.216 106.392-63.195 166.024-71.936 21.845-3.189 21.845-3.189 52.428-3.425 17.477-.119 31.883.354 41.802 1.535z"/><path d="m282.603 391.534-33.889 20.435-.119 72.054c0 45.359.473 75.952 1.299 82.685 2.834 23.034 11.336 46.54 22.79 62.487 10.155 14.174 27.513 28.821 43.809 36.972 9.564 4.843 27.513 10.513 38.849 12.166 12.871 1.89 39.321 1.654 51.484-.472 26.332-4.725 46.878-14.884 65.063-32.247 15.351-14.766 24.679-29.649 31.056-49.73 7.085-22.443 6.966-20.553 7.439-126.98l.472-97.805-2.834 1.536c-1.653.826-17.004 10.04-34.362 20.435l-31.41 18.899v66.739c0 40.515-.472 70.873-1.299 77.369-4.251 35.083-23.498 58.116-52.074 62.014-33.535 4.725-60.222-15.001-69.078-50.792-1.889-8.15-2.125-16.655-2.716-102.53l-.59-93.552z"/><path d="m533.174 524.067v152.967l34.008-20.317 33.889-20.435.354-21.971.237-21.852 34.007-.709c36.37-.709 49.595-2.126 68.134-7.441 20.9-6.025 37.432-15.593 49.004-28.468 7.557-8.505 15.587-24.687 19.129-38.744 2.48-9.449 2.716-13.347 2.598-35.436 0-22.798-.236-25.751-3.07-36.145-10.982-40.516-36.37-61.66-85.374-70.991-12.044-2.245-18.066-2.481-82.893-2.953l-70.023-.473zm136.739-90.954c22.554 5.788 32.945 17.482 35.07 39.334 1.89 18.191-4.605 40.398-13.815 48.194-11.1 9.45-20.428 11.222-59.041 11.222h-30.465v-50.911-50.91l30.465.59c22.79.355 32.236.945 37.786 2.481z"/></g></svg>

<svg width="1024" height="1024" viewBox="0 0 1024 1024" fill="none" xmlns="http://www.w3.org/2000/svg">
<rect width="1024" height="1024" fill="#16D2AA"/>
<path d="M474.133 100.837C393.483 108.751 317.32 139.699 253.909 190.019C237.26 203.367 203.606 237.031 190.263 253.686C138.661 318.653 107.842 396.141 100.875 478.472C99.1037 499.379 100.166 544.62 102.764 563.756C113.746 644.433 144.92 716.014 195.577 776.374C208.684 792.084 234.072 817.481 248.596 829.529C307.047 877.841 376.243 908.67 453.468 920.483C474.369 923.79 526.561 925.089 549.469 922.963C646.179 913.868 734.977 872.171 803.582 803.542C872.188 734.914 913.871 646.086 922.963 549.345C925.089 526.429 923.79 474.219 920.484 453.312C908.676 376.06 877.856 306.841 829.56 248.371C810.077 224.865 776.66 193.681 752.217 176.435C696.009 136.392 634.252 112.177 563.875 102.373C547.698 100.128 490.901 99.1834 474.133 100.837ZM552.54 159.189C706.991 177.262 831.214 292.43 860.734 445.043C872.07 503.75 868.055 566.354 849.044 623.407C825.428 694.28 782.564 753.341 722.46 797.991C643.817 856.224 541.558 879.376 445.203 860.713C319.681 836.38 216.95 746.726 175.739 625.769C167.591 601.909 161.569 573.441 158.853 546.746C156.728 526.075 157.909 477.763 161.097 458.037C170.898 396.495 194.278 342.868 233.245 292.076C244.345 277.665 277.88 244.119 292.286 233.015C343.298 193.799 398.678 169.82 458.31 161.079C480.155 157.89 480.155 157.89 510.738 157.654C528.215 157.535 542.621 158.008 552.54 159.189Z" fill="white"/>
<path d="M282.603 391.534L248.714 411.969L248.595 484.023C248.595 529.382 249.068 559.975 249.894 566.708C252.728 589.742 261.23 613.248 272.684 629.195C282.839 643.369 300.197 658.016 316.493 666.167C326.057 671.01 344.006 676.68 355.342 678.333C368.213 680.223 394.663 679.987 406.826 677.861C433.158 673.136 453.704 662.977 471.889 645.614C487.24 630.848 496.568 615.965 502.945 595.884C510.03 573.441 509.911 575.331 510.384 468.904L510.856 371.099L508.022 372.635C506.369 373.461 491.018 382.675 473.66 393.07L442.25 411.969V478.708C442.25 519.223 441.778 549.581 440.951 556.077C436.7 591.16 417.453 614.193 388.877 618.091C355.342 622.816 328.655 603.09 319.799 567.299C317.91 559.149 317.674 550.644 317.083 464.769L316.493 371.217L282.603 391.534Z" fill="white"/>
<path d="M533.174 524.067V677.034L567.182 656.717L601.071 636.282L601.425 614.311L601.662 592.459L635.669 591.75C672.039 591.041 685.264 589.624 703.803 584.309C724.703 578.284 741.235 568.716 752.807 555.841C760.364 547.336 768.394 531.154 771.936 517.097C774.416 507.648 774.652 503.75 774.534 481.661C774.534 458.863 774.298 455.91 771.464 445.516C760.482 405 735.094 383.856 686.09 374.525C674.046 372.28 668.024 372.044 603.197 371.572L533.174 371.099V524.067ZM669.913 433.113C692.467 438.901 702.858 450.595 704.983 472.447C706.873 490.638 700.378 512.845 691.168 520.641C680.068 530.091 670.74 531.863 632.127 531.863H601.662V480.952V430.042L632.127 430.632C654.917 430.987 664.363 431.577 669.913 433.113Z" fill="white"/>
</svg>
